Gurmukhi/0A6E.svg

<svg enable-background="new 0 0 336 592" viewBox="0 0 336 592" xmlns="http://www.w3.org/2000/svg"><path d="m181 251.964722c-10.327667-.007782-20.15683.079208-29.982208-.074982-3.517548-.055191-5.470856 1.276657-5.516983 4.784729-.389801 29.654663-.738785 59.328308 11.482101 87.306793 7.676163 17.573792 21.445709 26.215058 39.259766 24.921601 12.421264-.901886 20.42453-7.999268 25.831619-18.597931 2.658722-5.211457 4.374725-10.787354 5.642853-16.488312.633301-2.847046 1.658005-4.269318 5.125152-3.449829 6.901871 1.631378 14.00673 2.398895 20.738633 4.544952-2.521119 26.896118-21.126572 52.558411-52.153595 53.528809-32.636368 1.020752-53.745194-15.703125-67.563279-43.230042-13.113914-26.124206-15.598968-54.392517-14.35585-83.155517.043144-.998261.104119-1.996155.124916-2.994904.142365-6.83963.048004-6.946884-6.574142-7.693832-9.884361-1.114914-14.053253-7.229904-10.301415-16.336457 5.400353-13.107803 15.115387-22.247619 28.406449-27.109726 7.828537-2.86383 12.486557.227784 14.156753 8.375901.366699 1.789016.919342 3.614319.85643 5.404266-.288437 8.204605.926224 7.271301 8.109665 7.282715 25.152191.039917 50.305496.15329 75.455841-.06044 4.998413-.042465 7.745529 1.463806 8.878739 6.411728.737213 3.218963 2.249618 6.25473 3.325897 9.402954 1.823212 5.333145.669189 7.131393-4.979843 7.185684-11.492325.110474-22.98645.030533-34.479843.031677-6.99588.000702-13.991776.006333-21.487656.010163z"/></svg>

<svg version="1.1" id="Layer_1" xmlns="http://www.w3.org/2000/svg" xmlns:xlink="http://www.w3.org/1999/xlink" x="0px" y="0px"
	 width="100%" viewBox="0 0 336 592" enable-background="new 0 0 336 592" xml:space="preserve">
<path fill="#000000" opacity="1.000000" stroke="none" 
	d="
M181.000000,251.964722 
	C170.672333,251.956940 160.843170,252.043930 151.017792,251.889740 
	C147.500244,251.834549 145.546936,253.166397 145.500809,256.674469 
	C145.111008,286.329132 144.762024,316.002777 156.982910,343.981262 
	C164.659073,361.555054 178.428619,370.196320 196.242676,368.902863 
	C208.663940,368.000977 216.667206,360.903595 222.074295,350.304932 
	C224.733017,345.093475 226.449020,339.517578 227.717148,333.816620 
	C228.350449,330.969574 229.375153,329.547302 232.842300,330.366791 
	C239.744171,331.998169 246.849030,332.765686 253.580933,334.911743 
	C251.059814,361.807861 232.454361,387.470154 201.427338,388.440552 
	C168.790970,389.461304 147.682144,372.737427 133.864059,345.210510 
	C120.750145,319.086304 118.265091,290.817993 119.508209,262.054993 
	C119.551353,261.056732 119.612328,260.058838 119.633125,259.060089 
	C119.775490,252.220459 119.681129,252.113205 113.058983,251.366257 
	C103.174622,250.251343 99.005730,244.136353 102.757568,235.029800 
	C108.157921,221.921997 117.872955,212.782181 131.164017,207.920074 
	C138.992554,205.056244 143.650574,208.147858 145.320770,216.295975 
	C145.687469,218.084991 146.240112,219.910294 146.177200,221.700241 
	C145.888763,229.904846 147.103424,228.971542 154.286865,228.982956 
	C179.439056,229.022873 204.592361,229.136246 229.742706,228.922516 
	C234.741119,228.880051 237.488235,230.386322 238.621445,235.334244 
	C239.358658,238.553207 240.871063,241.588974 241.947342,244.737198 
	C243.770554,250.070343 242.616531,251.868591 236.967499,251.922882 
	C225.475174,252.033356 213.981049,251.953415 202.487656,251.954559 
	C195.491776,251.955261 188.495880,251.960892 181.000000,251.964722 
z"/>
</svg>
